X: 151
T: Scotch Reveilly
B: C. & S. Thompson, "The Compleat Tutor for the Fife" c.1760 p.15 #1
S: http://imslp.org/wiki/The_Compleat_Tutor_for_the_Fife_(Anonymous)
Z: 2014 John Chambers <jc:trillian.mit.edu>
M: 2/4
L: 1/16
K: G
% - - - - - - - - - - - - - - - - - - - - - - - - -
|: G2D2G2A2 | B3A G4 | d2ef g2d2 | dedc B4 :|\
|: d2dd e2ed | cBcA d4 | GABc d2g2 | B3A G4 :|
% - - - - - - - - - - - - - - - - - - - - - - - - -
